public/images/full-fledged.svg

<svg width="104" height="104" viewBox="0 0 104 104" fill="none" xmlns="http://www.w3.org/2000/svg">
<path d="M5.625 52C5.625 26.5949 26.2199 6 51.625 6C77.0301 6 97.625 26.5949 97.625 52C97.625 77.4051 77.0301 98 51.625 98C26.2199 98 5.625 77.4051 5.625 52Z" fill="#FFE9FA"/>
<path d="M41.2589 80.7857L37.0675 89.0204L34.3725 87.6487C33.0498 86.9964 32.1611 86.0675 31.7064 84.8621C31.2475 83.6651 31.3333 82.4677 31.9638 81.2701C32.5569 80.0638 33.4828 79.2837 34.7418 78.9295C36.0007 78.5754 37.2748 78.7369 38.5639 79.414L41.2589 80.7857ZM38.7997 81.4505L37.8016 80.9425C36.9698 80.5191 36.1795 80.4154 35.4308 80.6312C34.6779 80.8554 34.1003 81.3626 33.6981 82.1528C33.2917 82.9513 33.2216 83.7063 33.4878 84.4178C33.754 85.1293 34.3113 85.701 35.1598 86.1328L36.1579 86.6409L38.7997 81.4505Z" fill="#F36DD6"/>
<path d="M32.3001 75.5486L26.3348 82.6051L24.8915 81.3849L30.8567 74.3285L32.3001 75.5486Z" fill="#F36DD6"/>
<path d="M18.9382 74.8267L17.6183 73.1575L27.5511 70.5512L27.9418 71.0454L23.1234 80.1201L21.7949 78.4398L24.755 73.1546L18.9382 74.8267Z" fill="#F36DD6"/>
<path d="M24.4215 66.4107L15.9385 70.0735L13.4744 64.3668L15.0425 63.6897L16.7574 67.6613L18.4797 66.9176L17.2199 64L18.698 63.3618L19.9578 66.2794L22.1042 65.3526L20.3227 61.2268L21.8908 60.5497L24.4215 66.4107Z" fill="#F36DD6"/>
<path d="M20.4058 50.8295L20.6838 52.9392L17.7625 55.7388L17.9435 57.113L21.1776 56.6869L21.4244 58.5607L12.2636 59.7676L11.8101 56.3254C11.6833 55.363 11.852 54.5359 12.3163 53.844C12.7805 53.1521 13.4522 52.7482 14.3313 52.6324C14.905 52.5568 15.4421 52.632 15.9425 52.8579C16.4325 53.0757 16.836 53.4227 17.1529 53.8987L20.4058 50.8295ZM13.6684 57.6762L16.2918 57.3306L16.0851 55.7621C16.0278 55.3272 15.863 55.0053 15.5907 54.7964C15.3172 54.5783 14.9815 54.4954 14.5836 54.5479C14.195 54.5991 13.8975 54.7701 13.691 55.0609C13.4833 55.3424 13.4069 55.6914 13.4618 56.1078L13.6684 57.6762Z" fill="#F36DD6"/>
<path d="M18.6712 50.8522L17.8916 49.4212C18.8733 48.9055 19.4267 48.2229 19.5519 47.3734C19.6118 46.9672 19.5711 46.6357 19.4297 46.379C19.279 46.1209 19.0467 45.9687 18.7328 45.9225C18.4742 45.8844 18.2642 45.9336 18.1025 46.0701C17.9316 46.2053 17.706 46.4881 17.4256 46.9185L16.8374 47.8365C15.964 49.2173 14.978 49.8266 13.8792 49.6647C13.1036 49.5503 12.5225 49.1722 12.136 48.5303C11.7402 47.8871 11.607 47.1269 11.7363 46.2497C11.837 45.5664 12.0824 44.9893 12.4726 44.5185C12.8535 44.0464 13.3335 43.702 13.9126 43.4855L14.7082 44.9047C13.937 45.2721 13.5004 45.8021 13.3983 46.4947C13.3493 46.8271 13.3876 47.111 13.5133 47.3465C13.639 47.582 13.8403 47.7202 14.1173 47.761C14.3482 47.7951 14.5483 47.7491 14.7179 47.6231C14.8795 47.4866 15.0826 47.2288 15.3272 46.8497L15.9373 45.8783C16.4039 45.1452 16.8715 44.6292 17.3401 44.3303C17.7994 44.0301 18.3338 43.9249 18.9432 44.0148C19.765 44.1359 20.3856 44.534 20.805 45.209C21.2151 45.8827 21.3515 46.6858 21.214 47.6184C21.101 48.3848 20.8189 49.0508 20.3676 49.6164C19.9176 50.1727 19.3522 50.5846 18.6712 50.8522Z" fill="#F36DD6"/>
<path d="M22.0772 42.3308L13.5943 38.6679L16.0584 32.9612L17.6264 33.6382L15.9115 37.6098L17.6338 38.3535L18.8937 35.4359L20.3718 36.0741L19.1119 38.9917L21.2584 39.9185L23.0399 35.7927L24.608 36.4698L22.0772 42.3308Z" fill="#F36DD6"/>
<path d="M23.8742 29.2296C22.9511 28.2784 22.5225 27.1237 22.5884 25.7655C22.6479 24.4006 23.176 23.2671 24.1728 22.3651C24.8109 21.763 25.5289 21.368 26.3266 21.1799C27.1248 20.9786 27.9198 20.9984 28.7117 21.2393L28.3648 22.9525C27.1718 22.6537 26.1748 22.8822 25.3737 23.638C24.7492 24.2273 24.4284 24.9277 24.4114 25.7393C24.4012 26.5445 24.6971 27.2662 25.2992 27.9043C25.9013 28.5425 26.6013 28.8764 27.3994 28.9062C28.2042 28.9296 28.9189 28.6467 29.5434 28.0574C30.3445 27.3016 30.6305 26.3196 30.4016 25.1113L32.132 24.8645C32.3333 25.6626 32.3135 26.4577 32.0726 27.2495C31.8252 28.0346 31.3791 28.7314 30.7342 29.3399C29.7691 30.289 28.6066 30.757 27.2469 30.7439C25.8876 30.7176 24.7633 30.2128 23.8742 29.2296Z" fill="#F36DD6"/>
<path d="M34.3349 25.9072L30.4209 17.5371L32.1329 16.7365L33.6333 19.945L37.3364 18.2134L35.836 15.0049L37.5481 14.2043L41.4621 22.5743L39.75 23.3749L38.0599 19.7606L34.3568 21.4922L36.0469 25.1066L34.3349 25.9072Z" fill="#F36DD6"/>
<path d="M48.6074 21.2155L47.9193 20.0999L44.1797 20.6511L43.8428 21.9178L41.8345 22.2138L44.5484 12.3041L45.1717 12.2122L50.6157 20.9194L48.6074 21.2155ZM47.0417 18.6585L45.3676 15.7495L44.6041 19.0178L47.0417 18.6585Z" fill="#F36DD6"/>
<path d="M60.1083 22.0491L57.9985 21.7712L56.0511 18.2244L54.677 18.0434L54.2509 21.2774L52.3771 21.0305L53.5841 11.8697L57.0263 12.3232C57.9887 12.45 58.7438 12.8272 59.2919 13.4549C59.8399 14.0825 60.0561 14.8359 59.9402 15.7149C59.8646 16.2886 59.6529 16.7879 59.3051 17.2128C58.9678 17.6296 58.5282 17.9294 57.9863 18.1122L60.1083 22.0491ZM55.2402 13.7683L54.8946 16.3916L56.463 16.5983C56.898 16.6556 57.2516 16.5798 57.5238 16.3709C57.8054 16.1632 57.9724 15.8604 58.0248 15.4626C58.076 15.0739 57.9879 14.7422 57.7605 14.4675C57.5424 14.194 57.2251 14.0298 56.8087 13.975L55.2402 13.7683Z" fill="#F36DD6"/>
<path d="M62.4722 23.2695L65.3544 16.3107L62.6252 15.1803L63.2788 13.6023L70.4962 16.5917L69.8427 18.1697L67.1006 17.0339L64.2184 23.9927L62.4722 23.2695Z" fill="#F36DD6"/>
<path d="M71.5413 28.8535L76.63 23.3005L74.4522 21.3047L75.6061 20.0455L81.3656 25.3234L80.2116 26.5826L78.0235 24.5774L72.9347 30.1304L71.5413 28.8535Z" fill="#F36DD6"/>
<path d="M86.697 33.15L80.2733 33.5927L77.2386 35.6027L76.1949 34.027L79.218 32.0247L82.1359 26.2635L83.2955 28.0143L81.3661 31.7439L85.5451 31.4109L86.697 33.15Z" fill="#F36DD6"/>
<path d="M79.2508 39.0824L88.0178 36.1639L89.1144 39.4582C89.421 40.3792 89.4118 41.2233 89.0868 41.9905C88.7619 42.7578 88.1788 43.2814 87.3375 43.5615C86.5051 43.8386 85.7244 43.7689 84.9956 43.3525C84.2667 42.9361 83.749 42.2673 83.4424 41.3464L82.9427 39.8454L79.8477 40.8757L79.2508 39.0824ZM84.5102 39.3236L85.0099 40.8246C85.1484 41.2408 85.3711 41.5257 85.678 41.6793C85.9967 41.8388 86.3465 41.8552 86.7273 41.7284C87.0992 41.6046 87.359 41.3804 87.5067 41.0558C87.6574 40.74 87.6663 40.3829 87.5337 39.9844L87.034 38.4834L84.5102 39.3236Z" fill="#F36DD6"/>
<path d="M81.5404 46.7957L90.7628 46.2256L91.1463 52.4298L89.4415 52.5352L89.1746 48.2174L87.3022 48.3331L87.4983 51.5051L85.8913 51.6044L85.6953 48.4325L83.3617 48.5767L83.639 53.0621L81.9342 53.1675L81.5404 46.7957Z" fill="#F36DD6"/>
<path d="M77.8457 55.1477C76.4847 51.9339 74.5764 50.1641 72.4721 50.1641C70.3679 50.1641 68.4595 51.9339 67.0986 55.1477C65.8461 58.1056 65.1562 62.018 65.1562 66.1641C65.1562 70.3101 65.8461 74.2225 67.0986 77.1804C68.4595 80.3942 70.3679 82.1641 72.4721 82.1641C74.5764 82.1641 76.4847 80.3942 77.8457 77.1804C79.0982 74.2225 79.7881 70.3101 79.7881 66.1641C79.7881 62.018 79.0982 58.1056 77.8457 55.1477ZM72.4721 80.2891C71.1878 80.2891 69.8586 78.8895 68.8252 76.4492C68.0225 74.5537 67.4703 72.2147 67.2073 69.6573C67.7852 69.9816 68.4509 70.1675 69.1596 70.1675C71.3671 70.1675 73.163 68.3716 73.163 66.1641C73.163 63.9565 71.3671 62.1606 69.1596 62.1606C68.4509 62.1606 67.7852 62.3465 67.2071 62.6709C67.8675 56.2618 70.2766 52.0391 72.4721 52.0391C73.7564 52.0391 75.0857 53.4386 76.1191 55.8789C77.2759 58.6108 77.9131 62.2634 77.9131 66.1641C77.9131 74.4882 75.0456 80.2891 72.4721 80.2891ZM67.0312 66.1641C67.0312 64.9905 67.986 64.0356 69.1596 64.0356C70.3332 64.0356 71.2881 64.9904 71.2881 66.1641C71.2881 67.3377 70.3332 68.2925 69.1596 68.2925C67.986 68.2925 67.0312 67.3376 67.0312 66.1641Z" fill="#F36DD6"/>
<path d="M55.103 50.1641C52.9988 50.1641 51.0904 51.9339 49.7295 55.1477C48.4769 58.1056 47.7871 62.018 47.7871 66.1641C47.7871 70.3101 48.4769 74.2225 49.7295 77.1804C51.0904 80.3942 52.9988 82.1641 55.103 82.1641C57.2074 82.1641 59.1157 80.3942 60.4766 77.1804C61.7292 74.2225 62.419 70.3101 62.419 66.1641C62.419 62.018 61.7292 58.1056 60.4765 55.1477C59.1157 51.9339 57.2074 50.1641 55.103 50.1641ZM55.103 80.2891C53.8187 80.2891 52.4895 78.8895 51.4561 76.4492C50.6534 74.5537 50.1012 72.2146 49.8382 69.6573C50.4162 69.9816 51.0819 70.1675 51.7905 70.1675C53.998 70.1675 55.7939 68.3716 55.7939 66.1641C55.7939 63.9565 53.998 62.1606 51.7905 62.1606C51.0819 62.1606 50.4161 62.3465 49.838 62.6709C50.4984 56.2618 52.9075 52.0391 55.103 52.0391C56.3874 52.0391 57.7167 53.4386 58.75 55.8789C59.9069 58.6108 60.544 62.2634 60.544 66.1641C60.544 74.4882 57.6765 80.2891 55.103 80.2891ZM49.6621 66.1641C49.6621 64.9905 50.6169 64.0356 51.7905 64.0356C52.9642 64.0356 53.9189 64.9905 53.9189 66.1641C53.9189 67.3376 52.9641 68.2925 51.7905 68.2925C50.6169 68.2925 49.6621 67.3376 49.6621 66.1641Z" fill="#F36DD6"/>
</svg>

<svg width="104" height="104" fill="none" xmlns="http://www.w3.org/2000/svg"><path d="M5.625 52c0-25.405 20.595-46 46-46s46 20.595 46 46-20.595 46-46 46-46-20.595-46-46z" fill="#FFE9FA"/><path d="M41.259 80.786l-4.191 8.234-2.695-1.371c-1.323-.653-2.212-1.582-2.667-2.787-.459-1.197-.373-2.394.258-3.592.593-1.206 1.519-1.986 2.778-2.34 1.259-.355 2.533-.193 3.822.484l2.695 1.372zm-2.46.665l-.997-.508c-.832-.424-1.623-.528-2.371-.312-.753.224-1.33.732-1.733 1.522-.406.798-.476 1.553-.21 2.265.266.711.823 1.283 1.672 1.715l.998.508 2.642-5.19zM32.3 75.549l-5.965 7.056-1.444-1.22 5.966-7.056 1.443 1.22zM18.938 74.827l-1.32-1.67 9.933-2.606.39.494-4.818 9.075-1.328-1.68 2.96-5.285-5.817 1.672zM24.422 66.41l-8.484 3.663-2.464-5.706 1.569-.677 1.714 3.971 1.723-.743L17.22 64l1.478-.638 1.26 2.917 2.146-.926-1.781-4.126 1.568-.677 2.53 5.86zM20.406 50.83l.278 2.11-2.922 2.799.181 1.374 3.235-.426.246 1.874-9.16 1.207-.454-3.443c-.127-.962.042-1.79.506-2.481.464-.692 1.136-1.096 2.015-1.212.574-.075 1.111 0 1.612.226.49.218.893.565 1.21 1.04l3.253-3.069zm-6.738 6.846l2.624-.345-.207-1.569c-.057-.435-.222-.757-.494-.966-.274-.218-.61-.3-1.007-.248-.389.051-.686.222-.893.513-.208.281-.284.63-.23 1.047l.207 1.568zM18.671 50.852l-.78-1.43c.982-.516 1.536-1.2 1.66-2.049.06-.406.02-.737-.121-.994a.917.917 0 00-.697-.456c-.259-.039-.469.01-.63.147-.171.135-.397.418-.677.849l-.589.918c-.873 1.38-1.859 1.99-2.958 1.828-.775-.115-1.356-.493-1.743-1.135-.396-.643-.529-1.403-.4-2.28.101-.684.346-1.26.737-1.731a3.3 3.3 0 011.44-1.033l.795 1.419c-.771.367-1.208.897-1.31 1.59-.049.332-.01.616.115.852a.773.773 0 00.604.414.777.777 0 00.6-.138c.162-.136.366-.394.61-.773l.61-.972c.467-.733.935-1.249 1.403-1.548.46-.3.994-.405 1.603-.315.822.12 1.443.519 1.862 1.194.41.674.547 1.477.409 2.41a4.098 4.098 0 01-.846 1.997 4.044 4.044 0 01-1.697 1.236zM22.077 42.33l-8.483-3.662 2.464-5.707 1.568.677-1.715 3.972 1.723.743 1.26-2.917 1.478.638-1.26 2.918 2.146.927 1.782-4.126 1.568.677-2.53 5.86zM23.874 29.23c-.923-.952-1.351-2.106-1.286-3.465.06-1.364.588-2.498 1.585-3.4.638-.602 1.356-.997 2.154-1.185a4.374 4.374 0 012.385.06l-.347 1.713c-1.193-.3-2.19-.07-2.991.685-.625.59-.946 1.29-.963 2.101-.01.805.286 1.527.888 2.165.602.639 1.302.972 2.1 1.002.805.024 1.52-.26 2.144-.849.802-.755 1.088-1.737.859-2.946l1.73-.247a4.373 4.373 0 01-.06 2.386c-.247.785-.693 1.481-1.338 2.09-.965.949-2.127 1.417-3.487 1.404-1.36-.026-2.484-.531-3.373-1.514zM34.335 25.907l-3.914-8.37 1.712-.8 1.5 3.208 3.703-1.732-1.5-3.208 1.712-.8 3.914 8.37-1.712.8-1.69-3.614-3.703 1.731 1.69 3.615-1.712.8zM48.607 21.215L47.92 20.1l-3.74.551-.336 1.267-2.009.296 2.714-9.91.624-.092 5.444 8.707-2.009.296zm-1.565-2.556l-1.674-2.91-.764 3.269 2.438-.36zM60.108 22.05l-2.11-.279-1.947-3.547-1.374-.18-.426 3.233-1.874-.247 1.207-9.16 3.442.453c.963.127 1.718.504 2.266 1.132.548.627.764 1.38.648 2.26a2.916 2.916 0 01-.635 1.498 2.81 2.81 0 01-1.319.9l2.122 3.936zm-4.868-8.282l-.345 2.624 1.568.206c.435.058.789-.018 1.06-.227.282-.208.45-.51.502-.908.051-.39-.037-.72-.264-.995-.219-.274-.536-.438-.952-.493l-1.569-.207zM62.472 23.27l2.882-6.96-2.729-1.13.654-1.578 7.217 2.99-.653 1.578-2.742-1.136-2.883 6.959-1.746-.723zM71.541 28.854L76.63 23.3l-2.178-1.996 1.154-1.26 5.76 5.278-1.154 1.26-2.189-2.006-5.088 5.553-1.394-1.276zM86.697 33.15l-6.424.443-3.034 2.01-1.044-1.576 3.023-2.002 2.918-5.761 1.16 1.75-1.93 3.73 4.18-.333 1.151 1.739zM79.25 39.082l8.768-2.918 1.096 3.294c.307.921.298 1.765-.027 2.532-.325.768-.908 1.291-1.75 1.572-.832.277-1.613.207-2.341-.21-.73-.416-1.247-1.085-1.554-2.006l-.5-1.5-3.094 1.03-.597-1.794zm5.26.242l.5 1.5c.138.417.361.702.668.855.319.16.669.176 1.05.05.371-.124.631-.349.779-.673.15-.316.16-.673.027-1.072l-.5-1.5-2.524.84zM81.54 46.796l9.223-.57.383 6.204-1.704.105-.267-4.318-1.873.116.196 3.172-1.607.1-.196-3.172-2.333.144.277 4.485-1.705.105-.394-6.371zM77.846 55.148c-1.361-3.214-3.27-4.984-5.374-4.984-2.104 0-4.012 1.77-5.373 4.984-1.253 2.958-1.943 6.87-1.943 11.016s.69 8.058 1.943 11.016c1.36 3.214 3.269 4.984 5.373 4.984s4.013-1.77 5.374-4.984c1.252-2.958 1.942-6.87 1.942-11.016s-.69-8.058-1.942-11.016zm-5.374 25.141c-1.284 0-2.613-1.4-3.647-3.84-.803-1.895-1.355-4.234-1.618-6.792.578.325 1.244.51 1.953.51a4.008 4.008 0 004.003-4.003 4.008 4.008 0 00-4.003-4.003c-.71 0-1.375.185-1.953.51.66-6.41 3.07-10.632 5.265-10.632 1.284 0 2.614 1.4 3.647 3.84 1.157 2.732 1.794 6.384 1.794 10.285 0 8.324-2.867 14.125-5.44 14.125zm-5.44-14.125a2.13 2.13 0 012.128-2.128 2.13 2.13 0 012.128 2.128 2.13 2.13 0 01-2.128 2.129 2.13 2.13 0 01-2.129-2.129zM55.103 50.164c-2.104 0-4.013 1.77-5.373 4.984-1.253 2.958-1.943 6.87-1.943 11.016s.69 8.058 1.943 11.016c1.36 3.214 3.269 4.984 5.373 4.984s4.013-1.77 5.374-4.984c1.252-2.958 1.942-6.87 1.942-11.016s-.69-8.058-1.942-11.016c-1.361-3.214-3.27-4.984-5.374-4.984zm0 30.125c-1.284 0-2.614-1.4-3.647-3.84-.803-1.895-1.355-4.234-1.618-6.792.578.325 1.244.51 1.953.51a4.008 4.008 0 004.003-4.003 4.008 4.008 0 00-4.003-4.003c-.71 0-1.375.185-1.953.51.66-6.41 3.07-10.632 5.265-10.632 1.284 0 2.614 1.4 3.647 3.84 1.157 2.732 1.794 6.384 1.794 10.285 0 8.324-2.867 14.125-5.441 14.125zm-5.44-14.125a2.13 2.13 0 012.128-2.128 2.13 2.13 0 012.128 2.128 2.13 2.13 0 01-2.128 2.129 2.13 2.13 0 01-2.129-2.129z" fill="#F36DD6"/></svg>
